build/img/logo.svg

<svg width="2657" height="254" viewBox="0 0 2657 254" fill="none" xmlns="http://www.w3.org/2000/svg">
<g clip-path="url(#clip0_1026_3300)">
<path d="M246.85 175.89C246.85 199.59 236.07 221.13 218.12 232.99C203.06 242.66 186.53 246.27 157.82 246.27H0L14.28 203.53H142.01C158.9 203.53 164.63 202.81 170.74 200.31C179.71 196.36 185.83 185.58 185.83 174.11C185.83 163.69 181.16 154.72 173.6 150.05C167.15 146.47 158.9 145.02 142.37 145.02H33.84L47.54 104.09H135.21C163.22 104.09 175.42 95.8396 175.42 77.1896C175.42 67.8496 170.75 58.8796 163.58 54.5696C157.47 50.9596 150.3 49.5396 135.57 49.5396H65.77L80.08 6.80957H160.69C185.11 6.80957 201.26 10.7596 213.46 20.0896C227.1 30.8696 235.72 49.1796 235.72 68.5496C235.72 92.6096 224.61 108.76 200.18 120.62C215.63 124.93 222.08 127.79 228.91 133.54C240.39 142.51 246.86 157.94 246.86 175.89H246.85Z" fill="black"/>
<path d="M280.16 6.81982H420.89C452.48 6.81982 467.56 8.96982 479.77 15.0798C498.79 25.1298 510.28 45.9498 510.28 71.0798C510.28 90.8198 503.1 106.62 489.46 118.11C482.64 123.85 476.18 127.08 462.18 132.11C492.34 138.57 500.95 151.85 503.46 197.8C505.97 231.19 506.69 233.7 512.79 246.26H452.12C449.61 235.49 449.61 234.05 446.73 206.05C443.14 166.56 433.81 156.51 401.14 156.51H334.73V246.26H280.16V6.81982ZM405.81 112.36C421.61 112.36 426.27 111.64 432.38 109.13C443.51 104.46 449.97 94.4098 449.97 81.4898C449.97 68.5698 443.51 58.5098 432.02 54.9198C426.28 52.7698 421.25 52.4098 405.81 52.4098H334.73V112.36H405.81Z" fill="black"/>
<path d="M811.58 246.28H746.62L721.14 192.43H720.94L664.29 70.3596L609.3 192.43H609.13L584.71 246.28H524.77L639.64 6.80957H694.21L811.58 246.28Z" fill="black"/>
<path d="M828.57 6.81982H889.24L1022.42 169.08V6.81982H1075.55V246.27H1015.24L881.69 84.0098V246.27H828.56V6.81982H828.57Z" fill="black"/>
<path d="M1120.77 6.81982H1244.26C1286.26 6.81982 1309.6 12.1998 1329.34 26.5598C1359.5 48.4598 1376.37 83.9998 1376.37 124.92C1376.37 172.66 1353.75 213.95 1316.78 233.33C1299.55 242.31 1275.85 246.25 1239.24 246.25H1120.77V6.81982ZM1234.57 200.67C1260.77 200.67 1271.19 199.23 1281.96 194.21C1303.5 183.44 1315.34 160.11 1315.34 127.08C1315.34 90.8198 1300.62 65.6898 1274.78 57.0798C1265.45 53.8498 1254.68 52.7698 1233.85 52.7698H1175.69V200.67H1234.57V200.67Z" fill="black"/>
<path d="M1478.68 246.27L1368.47 6.81982H1434.52L1511.34 182.37L1584.58 6.81982H1645.97L1540.79 246.27H1478.69H1478.68Z" fill="black"/>
<path d="M1663.08 6.81982H1878.83V52.7698H1717.64V101.59H1859.44V144.31H1717.64V200.31H1878.83V246.26H1663.08V6.81982Z" fill="black"/>
<path d="M1915.52 6.81982H2056.25C2087.84 6.81982 2102.92 8.96982 2115.13 15.0798C2134.15 25.1298 2145.64 45.9498 2145.64 71.0798C2145.64 90.8198 2138.46 106.62 2124.82 118.11C2118 123.85 2111.54 127.08 2097.54 132.11C2127.7 138.57 2136.31 151.85 2138.82 197.8C2141.33 231.19 2142.05 233.7 2148.15 246.26H2087.48C2084.97 235.49 2084.97 234.05 2082.09 206.05C2078.5 166.56 2069.17 156.51 2036.5 156.51H1970.09V246.26H1915.52V6.81982V6.81982ZM2041.17 112.36C2056.97 112.36 2061.63 111.64 2067.74 109.13C2078.87 104.46 2085.33 94.4098 2085.33 81.4898C2085.33 68.5698 2078.87 58.5098 2067.38 54.9198C2061.64 52.7698 2056.61 52.4098 2041.17 52.4098H1970.09V112.36H2041.17V112.36Z" fill="black"/>
<path d="M2234.29 165.49C2236.8 195.65 2256.19 208.93 2296.75 208.93C2329.78 208.93 2348.8 197.8 2348.8 178.42C2348.8 161.19 2336.95 155.8 2277.36 146.47C2223.51 138.22 2215.61 136.06 2199.46 126.37C2182.95 116.32 2173.61 98.3698 2173.61 76.8298C2173.61 27.6498 2214.9 0.00976562 2288.13 0.00976562C2333.36 0.00976562 2363.88 9.33977 2382.9 28.7298C2397.26 43.0898 2403.36 56.7298 2404.44 76.8398H2341.62C2338.39 53.8598 2322.6 44.5298 2287.77 44.5298C2252.94 44.5298 2235.36 53.1498 2235.36 69.2998C2235.36 79.3498 2240.75 85.4498 2252.59 89.0398C2262.64 91.9098 2271.61 93.3498 2311.46 99.8098C2358.49 107.35 2374.28 111.66 2389 121.35C2404.44 131.4 2413.77 150.07 2413.77 171.61C2413.77 223.31 2368.54 253.1 2290.28 253.1C2212.02 253.1 2173.61 223.66 2170.02 165.51H2234.28L2234.29 165.49Z" fill="black"/>
<path d="M2444.14 248.5H2656.04V202.54H2444.14V248.5ZM2444.14 9.03955V54.9896H2656.04V9.03955H2444.14V9.03955ZM2629.27 103.82H2444.14V146.56H2629.27V103.82Z" fill="black"/>
</g>
<defs>
<clipPath id="clip0_1026_3300">
<rect width="2656.04" height="253.09" fill="white"/>
</clipPath>
</defs>
</svg>

<svg width="2657" height="254" viewBox="0 0 2657 254" fill="none" xmlns="http://www.w3.org/2000/svg"><g clip-path="url(#clip0_1026_3300)" fill="#000"><path d="M246.85 175.89c0 23.7-10.78 45.24-28.73 57.1-15.06 9.67-31.59 13.28-60.3 13.28H0l14.28-42.74h127.73c16.89 0 22.62-.72 28.73-3.22 8.97-3.95 15.09-14.73 15.09-26.2 0-10.42-4.67-19.39-12.23-24.06-6.45-3.58-14.7-5.03-31.23-5.03H33.84l13.7-40.93h87.67c28.01 0 40.21-8.25 40.21-26.9 0-9.34-4.67-18.31-11.84-22.62-6.11-3.61-13.28-5.03-28.01-5.03h-69.8L80.08 6.81h80.61c24.42 0 40.57 3.95 52.77 13.28 13.64 10.78 22.26 29.09 22.26 48.46 0 24.06-11.11 40.21-35.54 52.07 15.45 4.31 21.9 7.17 28.73 12.92 11.48 8.97 17.95 24.4 17.95 42.35h-.01zM280.16 6.82h140.73c31.59 0 46.67 2.15 58.88 8.26 19.02 10.05 30.51 30.87 30.51 56 0 19.74-7.18 35.54-20.82 47.03-6.82 5.74-13.28 8.97-27.28 14 30.16 6.46 38.77 19.74 41.28 65.69 2.51 33.39 3.23 35.9 9.33 48.46h-60.67c-2.51-10.77-2.51-12.21-5.39-40.21-3.59-39.49-12.92-49.54-45.59-49.54h-66.41v89.75h-54.57V6.82zm125.65 105.54c15.8 0 20.46-.72 26.57-3.23 11.13-4.67 17.59-14.72 17.59-27.64s-6.46-22.98-17.95-26.57c-5.74-2.15-10.77-2.51-26.21-2.51h-71.08v59.95h71.08zm405.77 133.92h-64.96l-25.48-53.85h-.2L664.29 70.36 609.3 192.43h-.17l-24.42 53.85h-59.94L639.64 6.81h54.57l117.37 239.47zM828.57 6.82h60.67l133.18 162.26V6.82h53.13v239.45h-60.31L881.69 84.01v162.26h-53.13V6.82h.01zm292.2 0h123.49c42 0 65.34 5.38 85.08 19.74 30.16 21.9 47.03 57.44 47.03 98.36 0 47.74-22.62 89.03-59.59 108.41-17.23 8.98-40.93 12.92-77.54 12.92h-118.47V6.82zm113.8 193.85c26.2 0 36.62-1.44 47.39-6.46 21.54-10.77 33.38-34.1 33.38-67.13 0-36.26-14.72-61.39-40.56-70-9.33-3.23-20.1-4.31-40.93-4.31h-58.16v147.9h58.88zm244.11 45.6L1368.47 6.82h66.05l76.82 175.55 73.24-175.55h61.39l-105.18 239.45h-62.11zm184.4-239.45h215.75v45.95h-161.19v48.82h141.8v42.72h-141.8v56h161.19v45.95h-215.75V6.82zm252.44 0h140.73c31.59 0 46.67 2.15 58.88 8.26 19.02 10.05 30.51 30.87 30.51 56 0 19.74-7.18 35.54-20.82 47.03-6.82 5.74-13.28 8.97-27.28 14 30.16 6.46 38.77 19.74 41.28 65.69 2.51 33.39 3.23 35.9 9.33 48.46h-60.67c-2.51-10.77-2.51-12.21-5.39-40.21-3.59-39.49-12.92-49.54-45.59-49.54h-66.41v89.75h-54.57V6.82zm125.65 105.54c15.8 0 20.46-.72 26.57-3.23 11.13-4.67 17.59-14.72 17.59-27.64s-6.46-22.98-17.95-26.57c-5.74-2.15-10.77-2.51-26.21-2.51h-71.08v59.95h71.08zm193.12 53.13c2.51 30.16 21.9 43.44 62.46 43.44 33.03 0 52.05-11.13 52.05-30.51 0-17.23-11.85-22.62-71.44-31.95-53.85-8.25-61.75-10.41-77.9-20.1-16.51-10.05-25.85-28-25.85-49.54 0-49.18 41.29-76.82 114.52-76.82 45.23 0 75.75 9.33 94.77 28.72 14.36 14.36 20.46 28 21.54 48.11h-62.82c-3.23-22.98-19.02-32.31-53.85-32.31s-52.41 8.62-52.41 24.77c0 10.05 5.39 16.15 17.23 19.74 10.05 2.87 19.02 4.31 58.87 10.77 47.03 7.54 62.82 11.85 77.54 21.54 15.44 10.05 24.77 28.72 24.77 50.26 0 51.7-45.23 81.49-123.49 81.49-78.26 0-116.67-29.44-120.26-87.59h64.26l.01-.02zm209.85 83.01h211.9v-45.96h-211.9v45.96zm0-239.46v45.95h211.9V9.04h-211.9zm185.13 94.78h-185.13v42.74h185.13v-42.74z"/></g><defs><clipPath id="clip0_1026_3300"><path fill="#fff" d="M0 0h2656.04v253.09H0z"/></clipPath></defs></svg>
